tools/download-figma-icons/icons/solid/glass-of-water.svg

<svg width="24" height="24" viewBox="0 0 24 24" fill="none" xmlns="http://www.w3.org/2000/svg">
<path d="M20.8051 0.255C20.6626 0.09 20.4601 0 20.2426 0H3.7501C3.5401 0 3.3376 0.09 3.1951 0.255C3.0526 0.4125 2.9851 0.6225 3.0001 0.84L5.6851 23.34C5.7301 23.715 6.0526 24 6.4351 24H17.5576C17.9401 24 18.2551 23.715 18.3076 23.34L20.9926 0.84C21.0151 0.6225 20.9476 0.4125 20.8051 0.255ZM18.8326 6.225C18.0451 5.8575 17.0851 5.535 15.5776 5.535C13.6051 5.535 12.5701 6.0675 11.6551 6.54C10.7776 6.99 10.0201 7.38 8.4151 7.38C6.8101 7.38 6.1126 7.005 5.2801 6.57C5.2501 6.555 5.2201 6.54 5.1901 6.525L4.5901 1.5H19.4026L18.8326 6.225Z" fill="black"/>
</svg>

<svg xmlns="http://www.w3.org/2000/svg" width="24" height="24" fill="none" viewBox="0 0 24 24"><path fill="currentColor" d="M20.805.255A.74.74 0 0 0 20.243 0H3.75c-.21 0-.412.09-.555.255A.78.78 0 0 0 3 .84l2.685 22.5c.045.375.368.66.75.66h11.123a.76.76 0 0 0 .75-.66L20.993.84a.75.75 0 0 0-.188-.585m-1.972 5.97c-.788-.367-1.748-.69-3.255-.69-1.973 0-3.008.532-3.923 1.005-.877.45-1.635.84-3.24.84s-2.302-.375-3.135-.81l-.09-.045-.6-5.025h14.813z"/></svg>
